veiligh_install_type/161.svg

<?xml version="1.0" encoding="UTF-8"?>
<svg width="70.863" height="66.5" version="1.1" xml:space="preserve" xmlns="http://www.w3.org/2000/svg"><defs><clipPath id="clipPath18"><path d="m0 265.97v-265.97h566.93v265.97z"/></clipPath></defs><g transform="matrix(1.25,0,0,-1.25,0,66.5)"><rect transform="matrix(.8 0 0 -.8 0 26.6)" x="1.896" y="2.4402" width="67.545" height="28.44" rx=".52558" color="#000000" fill="#fff"/><g transform="scale(.1)"><g clip-path="url(#clipPath18)"><path d="m543.56 236.9v-213.54h-480.78c74.352 33.008 455.02 202.09 480.78 213.54zm6.309 26.019-541.43-240.45 4.3086-20.332h552.06v260.65l-14.934 0.137" fill="#ed1c24"/><path d="m541.44 240.47v-214.99h-515.94v214.99h515.94zm12.734 25.5h-554.17v-265.97h566.93v265.97h-12.762" fill="#231f20"/></g></g></g></svg>

<?xml version="1.0" encoding="UTF-8" standalone="no"?>
<svg
   xmlns:dc="http://purl.org/dc/elements/1.1/"
   xmlns:cc="http://creativecommons.org/ns#"
   xmlns:rdf="http://www.w3.org/1999/02/22-rdf-syntax-ns#"
   xmlns:svg="http://www.w3.org/2000/svg"
   xmlns="http://www.w3.org/2000/svg"
   xmlns:sodipodi="http://sodipodi.sourceforge.net/DTD/sodipodi-0.dtd"
   xmlns:inkscape="http://www.inkscape.org/namespaces/inkscape"
   width="125"
   height="125"
   version="1.1"
   xml:space="preserve"
   id="svg28301"
   sodipodi:docname="161.svg"
   inkscape:version="0.92.5 (2060ec1f9f, 2020-04-08)"><metadata
     id="metadata28305"><rdf:RDF><cc:Work
         rdf:about=""><dc:format>image/svg+xml</dc:format><dc:type
           rdf:resource="http://purl.org/dc/dcmitype/StillImage" /><dc:title></dc:title></cc:Work></rdf:RDF></metadata><sodipodi:namedview
     pagecolor="#ffffff"
     bordercolor="#666666"
     borderopacity="1"
     objecttolerance="10"
     gridtolerance="10"
     guidetolerance="10"
     inkscape:pageopacity="0"
     inkscape:pageshadow="2"
     inkscape:window-width="1920"
     inkscape:window-height="1017"
     id="namedview28303"
     showgrid="false"
     inkscape:zoom="3.5488722"
     inkscape:cx="35.431499"
     inkscape:cy="33.25"
     inkscape:window-x="-8"
     inkscape:window-y="-8"
     inkscape:window-maximized="1"
     inkscape:current-layer="svg28301" /><defs
     id="defs28287"><clipPath
       id="clipPath18"><path
         d="M 0,265.97 V 0 h 566.93 v 265.97 z"
         id="path28284"
         inkscape:connector-curvature="0" /></clipPath></defs><g
     transform="matrix(1.1465341,0,0,-1.1465341,29.999542,77.747184)"
     id="g28299"><rect
       transform="matrix(0.8,0,0,-0.8,0,26.6)"
       x="1.896"
       y="2.4402001"
       width="67.544998"
       height="28.440001"
       rx="0.52557999"
       id="rect28289"
       style="color:#000000;fill:#ffffff" /><g
       transform="scale(0.1)"
       id="g28297"><g
         clip-path="url(#clipPath18)"
         id="g28295"><path
           d="M 543.56,236.9 V 23.36 H 62.78 C 137.132,56.368 517.8,225.45 543.56,236.9 Z m 6.309,26.019 L 8.439,22.469 12.7476,2.137 h 552.06 v 260.65 l -14.934,0.137"
           id="path28291"
           inkscape:connector-curvature="0"
           style="fill:#ed1c24" /><path
           d="M 541.44,240.47 V 25.48 H 25.5 v 214.99 z m 12.734,25.5 H 0.004 V 0 h 566.93 v 265.97 h -12.762"
           id="path28293"
           inkscape:connector-curvature="0"
           style="fill:#231f20" /></g></g></g></svg>
